!!!!SEGMENT: pl-kk--kk-i-130--002_gorczycki-grzegorz-gerwazy--felix-es-sacra-virgo-maria.krn
!!!cenid: 16xx:734
!!!COM: Gorczycki, Grzegorz Gerwazy
!!!COM-rismid: pe30009207
!!!CDT: ~1666-1734/04/30
!!!CNT: Polish
!!!OTL: Felix es sacra virgo Maria
!!!PDT:
!!!AGN: Sacred
!!!SMS-siglum: PL-Kk
!!!SMS-shelfmark: Kk.I.130
!!!SMS-shelfwork: 002 W
!!!SMS-variant:
!!!SMS-altvar:
!!!NIFC-rismid: 1001145189
!!!URL-scan: http://repozytorium.nifc.pl/skany/pl-kk-nut--i-130
!!!ONB-nifc: UWAGA: utwory w zbiorze: 1. Beata es virgo Maria, 2. Felix es sacra virgo Maria, 3. Benedicta et venerabilis
!!!AIN: 1 alto 2 empty 1 tenor 1 vox
!!!key:
**kern	**fba	**text	**kern	**text	**dynam	**kern	**text	**dynam	**kern	**text	**kern	**text
*part5	*	*part5	*part4	*part4	*part4	*part3	*part3	*part3	*part2	*part2	*part1	*part1
*staff5	*	*staff5	*staff4	*staff4	*	*staff3	*staff3	*	*staff2	*staff2	*staff1	*staff1
*Iempty	*	*	*Iempty	*	*	*Itenor	*	*	*Ialto	*	*Ivox	*
*I"Baſso Ripieno.	*	*	*I"Baſso.	*	*	*I"Tenore	*	*	*I"Alto.	*	*I"Canto.	*
*I'B.	*	*	*I'B.	*	*	*I'T.	*	*	*I'A.	*	*I'C.	*
*clefF4	*	*	*clefF4	*	*	*clefC4	*	*	*clefC3	*	*clefC1	*
*k[b-]	*	*	*k[b-]	*	*	*k[b-]	*	*	*k[b-]	*	*k[b-]	*
*B-:	*	*	*B-:	*	*	*B-:	*	*	*B-:	*	*B-:	*
*M2/2	*	*	*M2/2	*	*	*M2/2	*	*	*M2/2	*	*M2/2	*
*met(c|)	*	*	*met(c|)	*	*	*met(c|)	*	*	*met(c|)	*	*met(c|)	*
=1	=1	=1	=1	=1	=1	=1	=1	=1	=1	=1	=1	=1
*	*	*	*	*	*	*2\right	*	*	*	*	*	*
!LO:TX:a:t=P:problem=znaki BB- B-	!	!	!LO:TX:a:t=P:problem=znaki BB- B-	!	!	!	!	!	!	!	!	!
!LO:TX:a:t=à Capella	!	!	!LO:TX:a:t=à Capella	!	!	!LO:TX:a:t=à Capella.	!	!	!LO:TX:a:t=à Capella.	!	!LO:TX:a:t=à Capella	!
!LO:TX:a:t=2.	!	!	!LO:TX:a:t=2.	!	!	!LO:TX:a:t=2.	!	!	!LO:TX:a:t=2.	!	!LO:TX:a:t=2.	!
0G	.	Fe-	0G	Fe-	.	2.d\	Fe-	.	4G/	Fe-	2.g/	Fe-
.	.	.	.	.	.	.	.	.	4A/	.	.	.
.	.	.	.	.	.	.	.	.	4B-/	.	.	.
.	.	.	.	.	.	4c\	.	.	4c/	.	4a\	.
=2-	=2-	=2	=2-	=2	=2	=2	=2	=2	=2	=2	=2	=2
.	.	.	.	.	.	4B-\	.	.	4d\	.	(4b-\	.
.	.	.	.	.	.	4c\	.	.	4d,<\	-lix	4a\	.
*	*	*	*	*	*	*	*	*	*2\right	*	*	*
.	.	.	.	.	.	4B-\	.	.	2.d\	es	4b-\	.
.	.	.	.	.	.	4A\	.	.	.	.	4cc\)	.
=3-	=3-	=3	=3-	=3	=3	=3	=3	=3	=3-	=3	=3	=3
*	*	*	*	*	*	*	*	*	*	*	*2\right	*
1G	.	-lix	1G	-lix	.	2G,</	-lix	.	.	.	2dd\	.
.	.	.	.	.	.	.	.	.	4c/	.	.	.
.	.	.	.	.	.	2B-\	es	.	4d/	.	1b-\	.
.	.	.	.	.	.	.	.	.	4B-,</	.	.	.
=4	=4	=4	=4	=4	=4	=4-	=4	=4	=4	=4	=4-	=4
1F,<	.	es	1F,<	es	.	1c	Sa-	.	2.f\	Fe-	.	.
.	.	.	.	.	.	.	.	.	.	.	2a\	-lix
.	.	.	.	.	.	.	.	.	4f\	-lix	.	.
=5-	=5-	=5	=5	=5	=5	=5-	=5	=5	=5	=5	=5	=5
1B-	.	Sa-	1B-	Sa-	.	1d,<	-cra	.	2f,<\	es	1b-,<	es
.	.	.	.	.	.	.	.	.	1b-\	Sa-	.	.
=6-	=6-	=6	=6-	=6	=6	=6	=6	=6	=6-	=6	=6	=6
*	*	*	*	*	*	*	*ij	*	*	*	*	*
1F	.	-cra	1F	-cra	.	2.f\	Sa-	.	.	.	1cc	Sa-
.	.	.	.	.	.	.	.	.	1f\	.	.	.
.	.	.	.	.	.	4e\	-cra	.	.	.	.	.
*	*	*	*	*	*	*	*Xij	*	*	*	*	*
=7	=7	=7	=7	=7	=7	=7	=7	=7	=7-	=7	=7-	=7
1G	.	Vir-	1G	Vir-	.	2d\	Vir-	.	.	.	1b-	-cra
.	.	.	.	.	.	2B-,<\	-go	.	2en,<\	-cra	.	.
=8-	=8-	=8	=8-	=8	=8	=8	=8	=8	=8	=8	=8	=8
*2\right	*	*	*2\right	*	*	*	*	*	*	*	*	*
2F,<\	.	-go	2F,<\	-go	.	2A\	Ma-	.	2f\	Vir-	2r	.
1B-\	.	Ma-	1BB-/	Ma-	.	2B-\	-ri-	.	2d\	-go	2dd\	Vir-
=9-	=9-	=9	=9-	=9	=9	=9-	=9	=9	=9	=9	=9-	=9
.	.	.	.	.	.	1c,<	-a	.	2en\	Ma-	1cc	-go
2A\	.	-ri-	2AA/	.	.	.	.	.	1f\	.	.	.
=10-	=10-	=10	=10	=10	=10	=10	=10	=10	=10-	=10	=10	=10
1G	.	.	1GG	-ri-	.	1r	.	.	.	.	1b-	Ma-
.	.	.	.	.	.	.	.	.	2en\	-ri-	.	.
=11-	=11-	=11	=11	=11	=11	=11-	=11	=11	=11-	=11	=11	=11
1F	.	-a	1FF	-a	.	2r	.	.	1f,<	-a	(4a\	-ri-
.	.	.	.	.	.	.	.	.	.	.	4g\	.
.	.	.	.	.	.	2c\	et	.	.	.	4a\	.
.	.	.	.	.	.	.	.	.	.	.	4b-\)	.
=12	=12	=12	=12	=12	=12	=12	=12	=12	=12	=12	=12	=12
2r	.	.	2r	.	.	2c\	om-	.	1r	.	1cc	.
2F\	.	et	2F\	et	.	2c\	-ni	.	.	.	.	.
=13	=13	=13	=13	=13	=13	=13	=13	=13	=13-	=13	=13-	=13
2F\	.	om-	2F\	om-	.	4A/	Lau-	.	2r	.	1cc,<	-a
.	.	.	.	.	.	4G/	.	.	.	.	.	.
2F\	.	-ni	2F\	-ni	.	4A/	.	.	2f\	et	.	.
*	*	*	*	*	*	*custos:b	*	*	*	*	*	*
.	.	.	.	.	.	4F/	.	.	.	.	.	.
!	!	!	!	!	!	!LO:LB:g=original	!	!	!	!	!	!
=14	=14	=14	=14	=14	=14	=14	=14	=14	=14	=14	=14	=14
4D/	.	lau-	4D/	lau-	.	4B-\	.	.	2f\	om-	2r	.
4C/	.	.	4C/	.	.	4c\	.	.	.	.	.	.
*	*	*	*	*	*	*	*	*	*custos:d	*	*	*
4BB-/	.	.	4BB-/	.	.	4d\	.	.	2f\	-ni	2b-\	et
4C/	.	.	4C/	.	.	4c\	.	.	.	.	.	.
!	!	!	!	!	!	!	!	!	!LO:LB:g=original	!	!	!
=15	=15	=15	=15	=15	=15	=15	=15	=15	=15	=15	=15	=15
4D/	.	.	4D\	.	.	2B-\	.	.	2d\	Lau-	2b-\	om-
4C/	.	.	4C\	.	.	.	.	.	.	.	.	.
4D/	.	.	4D\	.	.	2F,</	-de	.	2B-/	-de	2b-\	-ni
4E-X\	.	.	4E-X\	.	.	.	.	.	.	.	.	.
!	!	!	!	!	!	!	!	!	!	!	!LO:LB:g=original	!
=16	=16	=16	=16	=16	=16	=16	=16	=16	=16	=16	=16	=16
1F	.	.	1F	.	.	1c	Lau-	.	2r	.	4a\	lau-
.	.	.	.	.	.	.	.	.	.	.	4g/	.
.	.	.	.	.	.	.	.	.	2f\	et	4f/	.
.	.	.	.	.	.	.	.	.	.	.	4g/	.
=17-	=17-	=17	=17	=17	=17	=17-	=17	=17	=17	=17	=17	=17
2F,<\	.	-de	2F,<\	-de	.	2c,<\	-de	.	2f\	om-	2a\	.
2B-\	.	et	2B-\	et	.	2d\	et	.	2f\	-ni	2f/	.
!	!	!	!LO:LB:g=original	!	!	!	!	!	!	!	!	!
=18	=18	=18	=18	=18	=18	=18	=18	=18	=18	=18	=18-	=18
2B-\	.	om-	2B-\	om-	.	2d\	om-	.	4d\	Lau-	1b-	.
.	.	.	.	.	.	.	.	.	4c\	.	.	.
2B-\	.	-ni	2B-\	-ni	.	2d\	-ni	.	4d\	.	.	.
.	.	.	.	.	.	.	.	.	4B-/	.	.	.
=19	=19	=19	=19	=19	=19	=19	=19	=19	=19-	=19	=19	=19
!LO:TX:a:t=P:problem=♮ above	!	!	!	!	!	!	!	!	!	!	!	!
4An\	.	lau-	4An\	lau-	.	4c\	Lau-	.	1c	.	2f,</	-de
4G\	.	.	4G\	.	.	4B-\	.	.	.	.	.	.
4F\	.	.	4F\	.	.	4A\	.	.	.	.	2ff\	et
4G\	.	.	4G\	.	.	4B-\	.	.	.	.	.	.
!LO:LB:g=original	!	!	!	!	!	!	!	!	!	!	!	!
=20-	=20-	=20	=20	=20	=20	=20	=20	=20	=20	=20	=20	=20
4A\	.	.	4A\	.	.	4c\	.	.	2c,<\	-de	2ff\	om-
4G\	.	.	4G\	.	.	4B-\	.	.	.	.	.	.
4A\	.	.	4A\	.	.	4c\	.	.	1f\	om-	2ff\	-ni
4F\	.	.	4F\	.	.	4A\	.	.	.	.	.	.
=21	=21	=21	=21	=21	=21	=21	=21	=21	=21-	=21	=21	=21
1B-	.	.	1B-	.	.	1d	.	.	.	.	4dd\	lau-
.	.	.	.	.	.	.	.	.	.	.	(4cc\	.
.	.	.	.	.	.	.	.	.	2f\	-ni	4b-\	.
.	.	.	.	.	.	.	.	.	.	.	4cc\)	.
=22	=22	=22	=22	=22	=22	=22	=22	=22	=22	=22	=22	=22
2B-,<\	.	-de	2B-,<\	-de	.	4B-,<\	-de	.	4f\	Lau-	2dd\	.
.	.	.	.	.	.	4B-\	dig-	.	4f\	-de	.	.
2G\	.	di-	2G\	di-	.	1e-X\	-niſ-	.	2g\	di-	4b-,<\	-de
.	.	.	.	.	.	.	.	.	.	.	4b-\	dig-
=23	=23	=23	=23	=23	=23	=23-	=23	=23	=23	=23	=23	=23
2A-X\	.	-gniſ-	2A-X\	-gniſ-	.	.	.	.	2e-X\	-gniſ-	2cc\	-niſ-
2F\	.	-si-	2F\	-si-	.	2d\	-si-	.	2f\	-si-	2a-X\	-si-
=24-	=24-	=24	=24	=24	=24	=24	=24	=24	=24	=24	=24-	=24
!	!	!	!	!	!	!LO:SIC:t:v:s=1e-	!	!	!	!	!	!
1E-X	.	-ma	1E-X,<	-ma	.	1e,<	-ma	.	2g,<\	-ma	1g	-ma
.	.	.	.	.	.	.	.	.	1g\	Qui-	.	.
=25	=25	=25	=25	=25	=25	=25	=25	=25	=25-	=25	=25	=25
!	!	!	!	!	!	!	!	!LO:DY:t=For.	!	!	!	!
00r	.	.	00r	.	.	2r	.	f	.	.	0r	.
.	.	.	.	.	.	1c\	Qui-	.	2e-X\	-a	.	.
=26	=26	=26	=26	=26	=26	=26-	=26	=26	=26	=26	=26	=26
.	.	.	.	.	.	.	.	.	2f\	ex	.	.
.	.	.	.	.	.	2Bn\	-a	.	2g\	Te	.	.
=27	=27	=27	=27	=27	=27	=27	=27	=27	=27	=27	=27-	=27
.	.	.	.	.	.	1c	ex	.	(4c\	or-	2r	.
.	.	.	.	.	.	.	.	.	4d\	.	.	.
.	.	.	.	.	.	.	.	.	4e-X\)	.	1cc\	Qui-
.	.	.	.	.	.	.	.	.	4f\	.	.	.
=28	=28	=28	=28	=28	=28	=28-	=28	=28	=28	=28	=28-	=28
.	.	.	.	.	.	1G,<	Te	.	2.g\	.	.	.
.	.	.	.	.	.	.	.	.	.	.	2bn\	-a
.	.	.	.	.	.	.	.	.	4f\	.	.	.
!	!	!	!	!	!	!LO:LB:g=original	!	!	!LO:LB:g=original	!	!	!
=29	=29	=29	=29	=29	=29	=29	=29	=29	=29	=29	=29	=29
00r	.	.	00r	.	.	4C/	or-	.	2.e-X\	.	1cc	ex
.	.	.	.	.	.	4D/	.	.	.	.	.	.
.	.	.	.	.	.	4E-X/	.	.	.	.	.	.
.	.	.	.	.	.	4F/	.	.	4e-\	-tus	.	.
=30	=30	=30	=30	=30	=30	=30	=30	=30	=30	=30	=30-	=30
.	.	.	.	.	.	4G/	.	.	4d\	est,	2g,</	Te
.	.	.	.	.	.	4A-X/	.	.	4c\	.	.	.
.	.	.	.	.	.	4B-/	.	.	4d\	.	2.g/	Or-
.	.	.	.	.	.	4G/	.	.	4B-,</	.	.	.
=31	=31	=31	=31	=31	=31	=31	=31	=31	=31-	=31	=31-	=31
.	.	.	.	.	.	2.c\	.	.	4e-X\	Or-	.	.
.	.	.	.	.	.	.	.	.	4f\	.	4f/	.
.	.	.	.	.	.	.	.	.	1g\	.	4e-X/	.
.	.	.	.	.	.	4B-\	.	.	.	.	4c/	.
=32	=32	=32	=32	=32	=32	=32	=32	=32	=32-	=32	=32	=32
.	.	.	.	.	.	2.A-X/	.	.	.	.	2.cc\	.
.	.	.	.	.	.	.	.	.	2f\	-tus	.	.
.	.	.	.	.	.	4A-/	-tus	.	.	.	4cc\	-tus
!	!	!	!	!	!	!	!	!	!	!	!LO:LB:g=original	!
=33	=33	=33	=33	=33	=33	=33	=33	=33	=33	=33	=33	=33
2r	.	.	2r	.	.	2G,</	est	.	2g,<\	est.	2bn,<\	est
1E-X\	5	Sol	[<2E-X\	Sol	.	2G/	Sol	.	2B-/	Sol	1g\	Sol
=34-	=34-	=34	=34	=34	=34	=34	=34	=34	=34	=34	=34-	=34
.	6	.	2E-\]	.	.	4c\	.	.	1c	.	.	.
.	.	.	.	.	.	4B-,<\	.	.	.	.	.	.
1F\	5	.	1F\	Jus-	.	4A-X/	Jus-	.	.	.	1a-X\	.
.	6	.	.	.	.	4G/	.	.	.	.	.	.
=35-	=35-	=35	=35-	=35	=35	=35	=35	=35	=35-	=35	=35-	=35
.	.	.	.	.	.	2F/	-ti-	.	1d	Jus-	.	.
1G\	5	Jus-	1G\	-ti-	.	2B-\	-ti-	.	.	.	[<2b-X\	Ju-
=36-	=36-	=36	=36-	=36	=36	=36-	=36	=36	=36-	=36	=36	=36
.	6	.	.	.	.	2G,</	-ae	.	1e-X	-ti-	2b-X\]	.
1A-X\	5	-ti-	[<2A-X\	.	.	2.c\	Ju-	.	.	.	1cc\	-sti-
=37-	=37-	=37	=37	=37	=37	=37-	=37	=37	=37	=37	=37-	=37
.	.	.	2A-\]	.	.	.	.	.	1.f	.	.	.
.	6	.	.	.	.	4d\	.	.	.	.	.	.
1B-\	5	.	1B-\	-ti-	.	1e-X\	-sti-	.	.	.	1b-\	-ti-
=38-	=38-	=38	=38-	=38	=38	=38-	=38	=38	=38-	=38	=38-	=38
.	x 4_	.	.	.	.	.	.	.	.	.	.	.
2BB-/	5 3	-ti-	2BB-/	.	.	2d\	-ti-	.	2f\	-ti-	2b-\	-ae-
=39	=39	=39	=39	=39	=39	=39	=39	=39	=39-	=39	=39-	=39
1E-X	.	-ae	1E-X	-ae	.	2e-X,<\	-ae	.	2g,<\	-ae	1b-	.
.	.	.	.	.	.	1e-\	Chris-	.	2g\	Chris-	.	.
=40	=40	=40	=40	=40	=40	=40-	=40	=40	=40-	=40	=40	=40
00r	.	.	00r	.	.	.	.	.	1f,<	-tus	1r	.
.	.	.	.	.	.	2d\	-tus	.	.	.	.	.
!	!	!	!	!	!	!LO:LB:g=original	!	!	!	!	!	!
=41	=41	=41	=41	=41	=41	=41	=41	=41	=41	=41	=41	=41
.	.	.	.	.	.	1c	De-	.	(2.e-X\	De-	2.ee-X\	Chris-
.	.	.	.	.	.	.	.	.	4d\)	.	4dd,<\	.
=42	=42	=42	=42	=42	=42	=42-	=42	=42	=42-	=42	=42-	=42
.	.	.	.	.	.	1F	-us	.	2c,</	-us	4cc\	-tus
.	.	.	.	.	.	.	.	.	.	.	4b-\	.
.	.	.	.	.	.	.	.	.	(2.f\	no-	1cc\	De-
=43	=43	=43	=43	=43	=43	=43	=43	=43	=43-	=43	=43-	=43
.	.	.	.	.	.	1G	noſ-	.	.	.	.	.
.	.	.	.	.	.	.	.	.	4e-X\)	.	.	.
.	.	.	.	.	.	.	.	.	2d\	.	2bn,<\	-us
!	!	!	!LO:LB:g=original	!	!	!	!	!	!	!	!	!
=44-	=44	=44	=44	=44	=44	=44-	=44	=44	=44-	=44	=44	=44
2r	.	.	2r	.	.	1C	-ter.	.	1e-X,<	-ster	2cc\	no-
1C/	x x 3	Qui-	1C/	Qui-	.	.	.	.	.	.	2ee-X\	.
!	!	!	!	!	!	!	!	!	!LO:LB:g=original	!	!	!
=45-	=45	=45	=45-	=45	=45	=45	=45	=45	=45	=45	=45-	=45
.	6 4 2	.	.	.	.	0r	.	.	2r	.	1dd	.
2BBn/	6	-a	2BBn/	-a	.	.	.	.	1g\	qui-	.	.
=46	=46	=46	=46	=46	=46	=46	=46	=46	=46-	=46	=46-	=46
1C	.	ex	1C	ex	.	.	.	.	.	.	2cc,<\	-ster
.	.	.	.	.	.	.	.	.	2e-X\	-a	[2g/	Or-
=47-	=47	=47	=47-	=47	=47	=47	=47	=47	=47	=47	=47	=47
!	!	!	!	!	!	!	!	!	!	!	!LO:N:xstem:cue	!
2GG,</	.	Te	2GG,</	Te	.	1r	.	.	1d	ex	4g/]	.
.	.	.	.	.	.	.	.	.	.	.	4an\	.
*	*	*	*	*ij	*	*	*	*	*	*	*	*
1G\	3	.	1G\	Qui-	.	.	.	.	.	.	4b-\	.
.	2	.	.	.	.	.	.	.	.	.	4g\	.
=48-	=48	=48	=48-	=48	=48	=48	=48	=48	=48	=48	=48	=48
.	.	.	.	.	.	2r	.	.	1c,<	Te	2.an\	.
2F#X\	6	.	2F#X\	-a	.	1d\	Qui-	.	.	.	.	.
*	*	*	*	*	*	*	*	*	*	*	*custos:g	*
.	.	.	.	.	.	.	.	.	.	.	4a\	-tus
!	!	!	!	!	!	!	!	!	!	!	!LO:LB:g=original	!
=49	=49	=49	=49	=49	=49	=49-	=49	=49	=49	=49	=49	=49
1G	.	.	1G	ex	.	.	.	.	4G/	or-	2g,<\	est
.	.	.	.	.	.	.	.	.	4A/	.	.	.
.	.	.	.	.	.	2B-\	-a	.	4B-/	.	1g\	qui-
.	.	.	.	.	.	.	.	.	4c/	.	.	.
=50-	=50	=50	=50	=50	=50	=50	=50	=50	=50	=50	=50-	=50
1D	.	.	1D,<	Te	.	1A	ex	.	4d\	.	.	.
*	*	*	*	*Xij	*	*	*	*	*	*	*	*
.	.	.	.	.	.	.	.	.	4e\	.	.	.
.	.	.	.	.	.	.	.	.	4f#X\	.	2f#X/	-a
*custos:GG	*	*	*	*	*	*	*	*	*	*	*	*
.	.	.	.	.	.	.	.	.	4d\	.	.	.
!LO:LB:g=original	!	!	!	!	!	!	!	!	!	!	!	!
=51	=51	=51	=51	=51	=51	=51-	=51	=51	=51	=51	=51	=51
4GG/	.	or-	4GG/	or-	.	1B-,<	Te	.	4B-/	.	1g	ex
4AA/	.	.	4AA/	.	.	.	.	.	4A/	.	.	.
4BB-/	.	.	4BB-/	.	.	.	.	.	2G/	-tus	.	.
4C/	.	.	4C/	.	.	.	.	.	.	.	.	.
=52	=52	=52	=52	=52	=52	=52	=52	=52	=52	=52	=52-	=52
4D\	.	.	4D\	.	.	2.A\	or-	.	2r	.	1f#X,<	Te
4E\	.	.	4E\	.	.	.	.	.	.	.	.	.
4F#X\	.	.	4F#X\	.	.	.	.	.	2.d\	or-	.	.
4D\	.	.	4D\	.	.	4A\	-tus	.	.	.	.	.
=53	=53	=53	=53	=53	=53	=53-	=53	=53	=53-	=53	=53	=53
2.G\	.	.	2.G\	.	.	2B-,<\	est	.	.	.	(4g\	or-
.	.	.	.	.	.	.	.	.	4c/	.	4a\	.
.	.	.	.	.	.	1B-\	or-	.	4B-/	.	4b-\	.
4F\	.	.	4F\	.	.	.	.	.	4G/	.	4cc\)	.
=54-	=54	=54	=54	=54	=54	=54-	=54	=54	=54	=54	=54	=54
2.E-X\	.	.	2.E-X\	.	.	.	.	.	2.g\	.	2dd\	-tus
.	.	.	.	.	.	2c\	tus	.	.	.	2cc\	.
4E-\	.	-tus	4E-\	-tus	.	.	.	.	4g\	-tus	.	.
=55	=55	=55	=55	=55	=55	=55	=55	=55	=55-	=55	=55-	=55
2D,</	.	est	2D,</	est	.	2A,<\	eſt	.	2f#X,<\	est	2dd,<\	est
1BB-/	5	Sol	1BB-/	Sol	.	2B-\	Sol	.	[<2d\	Sol	2f/	Sol
=56-	=56	=56	=56-	=56	=56	=56	=56	=56	=56	=56	=56	=56
.	6	.	.	.	.	2G/	.	.	2d\]	.	1g	.
1C/	5	.	1C/	.	.	2c\	Jus-	.	1e-X\	Ju-	.	.
=57-	=57	=57	=57-	=57	=57	=57	=57	=57	=57-	=57	=57-	=57
*	*	*	*	*	*	*	*	*	*	*	*lig	*
!	!	!	!	!	!	!	!	!	!	!	!LO:N:vis=0	!
.	6	.	.	.	.	2A\	-ti-	.	.	.	1an	Jus-
1D\	5	.	[2D/	Jus-	.	2d\	.	.	1f\	.	.	.
=58-	=58	=58	=58	=58	=58	=58-	=58	=58	=58-	=58	=58-	=58
!	!	!	!	!	!	!	!	!	!	!	!LO:N:vis=0	!
.	6	.	2D\]	.	.	2B-X\	.	.	.	.	1b-	-ti-
!	!	!	!	!	!	!LO:SIC:t:v:s=2-es	!	!	!	!	!	!
1E-X\	5	Jus-	1E-X\	-ti-	.	2e\	.	.	1g\	-sti-	.	.
*	*	*	*	*	*	*	*	*	*	*	*Xlig	*
=59-	=59	=59	=59-	=59	=59	=59	=59	=59	=59-	=59	=59-	=59
.	6	.	.	.	.	1.c	.	.	.	.	1.cc	.
1F\	5 4	-ti-	1F\	.	.	.	.	.	1f\	.	.	.
=60-	=60	=60	=60-	=60	=60	=60-	=60	=60	=60-	=60	=60-	=60
.	.	.	.	.	.	.	.	.	.	.	.	.
*	*	*	*	*	*	*custos:d	*	*	*custos:f	*	*	*
2F\	x 3	-ti-	2F\	-ti-	.	2c\	-ti-	.	2f\	-ti-	2an\	-ti-
!	!	!	!	!	!	!LO:LB:g=original	!	!	!LO:LB:g=original	!	!	!
=61	=61	=61	=61	=61	=61	=61	=61	=61	=61	=61	=61	=61
2BB-,</	.	-ae	2BB-,</	-ae	.	2d,<\	-ae	.	2f,<\	-ae	2b-,<\	-ae
1B-\	3	X-	1B-\	X-	.	2d\	Chris-	.	4d\	X-	4f/	X-
.	.	.	.	.	.	.	.	.	4d\	-tus	4f/	-tus
=62-	=62	=62	=62-	=62	=62	=62	=62	=62	=62	=62	=62	=62
.	2	.	.	.	.	1c,<	-t(us)	.	2en\	De-	2g\	De-
2A\	.	-tus	2A\	-tus	.	.	.	.	2f#X\	-us	2an\	-us
!	!	!	!LO:LB:g=original	!	!	!	!	!	!	!	!	!
=63	=63	=63	=63	=63	=63	=63	=63	=63	=63	=63	=63	=63
1G	.	De-	1G	De-	.	1B-X	De-	.	2.g\	no-	2.b-\	no-
.	.	.	.	.	.	.	.	.	4f\	.	4a\	.
=64-	=64	=64	=64-	=64	=64	=64-	=64	=64	=64	=64	=64-	=64
1C	6 5	-us	1C,<	-us	.	1c	-us	.	4en\	.	2g/	.
!	!	!	!	!	!	!	!	!	!LO:TX:a:t=P:problem=# above	!	!	!
.	.	.	.	.	.	.	.	.	(4f#\	.	.	.
.	.	.	.	.	.	.	.	.	2g\)	.	4cc\	.
*	*	*	*	*	*	*	*	*	*	*	*custos:b	*
.	.	.	.	.	.	.	.	.	.	.	4b-\	.
!	!	!	!	!	!	!	!	!	!	!	!LO:LB:g=original	!
=65-	=65	=65	=65	=65	=65	=65	=65	=65	=65	=65	=65	=65
0D	.	no-	[1D	no-	.	0d	noſ-	.	2f#X\	.	2a\	.
.	.	.	.	.	.	.	.	.	1g\	.	2b-\	.
=66-	=66	=66	=66	=66	=66	=66	=66	=66	=66-	=66	=66-	=66
.	.	.	1D]	.	.	.	.	.	.	.	1a	.
.	.	.	.	.	.	.	.	.	2f#X\	.	.	.
=67-	=67	=67	=67	=67	=67	=67	=67	=67	=67-	=67	=67-	=67
0GG;	.	-ster	0GG;	-ster	.	0d;	-ter	.	0g;<	-ster.	0b-;	-ster.
=68-	=68	=68	=68	=68	=68	=68	=68	=68	=68	=68	=68-	=68
.	.	.	.	.	.	.	.	.	.	.	.	.
=69||	=69||	=69||	=69||	=69||	=69||	=69||	=69||	=69||	=69||	=69||	=69||	=69||
*M3/2	*	*	*M3/2	*	*	*M3/2	*	*	*M3/2	*	*M3/2	*
!LO:N:vis=00	!	!	!LO:N:vis=00	!	!	!	!	!LO:DY:b:rj:t=for.	!	!	!	!
00.r	.	.	00.r	.	.	2e-X\	O-	f	2g\	O-	2b-\	O-
.	.	.	.	.	.	2e-\	-ra	.	2g\	-ra	2b-\	-ra
.	.	.	.	.	.	2e-\	pro	.	2g\	pro	2b-\	pro
=70	=70	=70	=70	=70	=70	=70	=70	=70	=70	=70	=70	=70
.	.	.	.	.	.	2e-X\	po-	.	2fn\	po-	2an\	po-
.	.	.	.	.	.	4e-\	-pu-	.	4f\	-pu-	4a\	-pu-
.	.	.	.	.	.	4e-,<\	-lo	.	4f,<\	-lo,	4a,<\	-lo
.	.	.	.	.	.	2d\	in-	.	2f\	in-	2b-\	in-
=71	=71	=71	=71	=71	=71	=71	=71	=71	=71	=71	=71	=71
.	.	.	.	.	.	2.c\	-ter-	.	2.e-X\	-ter-	2.an\	-ter-
.	.	.	.	.	.	4c\	-ve-	.	4e-\	-ve-	4a\	-ve-
.	.	.	.	.	.	2B-,<\	-ni	.	2d\	-ni	2b-,<\	-ni
!	!	!	!	!	!	!	!	!	!LO:LB:g=original	!	!	!
=72	=72	=72	=72	=72	=72	=72	=72	=72	=72	=72	=72	=72
.	.	.	.	.	.	2e-X\	pro	.	2c\	pro	2b-\	pro
.	.	.	.	.	.	2f\	Cle-	.	1c	Cle-	(2b-\	Cle-
.	.	.	.	.	.	2F/	.	.	.	.	2a\)	.
=73	=73	=73	=73	=73	=73	=73	=73	=73	=73	=73	=73	=73
*	*	*	*	*	*	*custos:b	*	*	*	*	*	*
!	!	!	!	!	!LO:DY:b:t=For.	!	!	!	!	!	!	!
2r	.	.	2r	.	f	2B-,<\	-ro	.	2d,<\	-ro	2b-,<\	-ro;
!	!	!	!	!	!	!LO:LB:g=original	!	!	!	!	!	!
2B-\	.	In-	2B-\	In-	.	2B-\	in-	.	2f\	in-	2dd\	in-
2B-\	.	-ter-	2B-\	-ter-	.	2B-\	-ter-	.	2f\	-ter-	2dd\	-ter-
=74	=74	=74	=74	=74	=74	=74	=74	=74	=74	=74	=74	=74
2.B-\	2	-ce-	2.B-\	-ce-	.	2.c\	-ce-	.	2.g\	-ce-	2.een\	-ce-
4B-\	.	-de	4B-\	-de	.	4c,<\	-de	.	4g\	-de	4ee\	-de
4An\	6	pro	4An\	pro	.	4c\	pro	.	4f\	pro	4ff\	pro
4A\	.	de	4A\	de	.	4c\	de-	.	4f\	de-	4ff\	de-
!LO:LB:g=original	!	!	!	!	!	!	!	!	!	!	!LO:LB:g=original	!
=75	=75	=75	=75	=75	=75	=75	=75	=75	=75	=75	=75	=75
2.G\	6\	vo-	2.G\	vo-	.	2.B-X\	-vo-	.	2.g\	-vo-	2.een\	-vo-
4G\	.	-to	4G,<\	-to	.	4B-\	-to	.	4g\	-to	4ee\	-to
2F\	.	Fae-	2F\	fae-	.	2c\	fae-	.	2an\	Fae-	2ff\	fe-
=76	=76	=76	=76	=76	=76	=76	=76	=76	=76	=76	=76	=76
2.c\	.	-mi-	2.c\	-mi-	.	2.c\	-mi-	.	2.g\	-mi-	2.een\	-mi-
4B-\	.	-ne-	4B-\	-ne-	.	4c\	-nes	.	4g\	-ne-	4dd\	-ne-
2A\	.	-o	2A\	-o	.	2c\	.	.	[<2f\	-o	2cc\	-o
=77	=77	=77	=77	=77	=77	=77	=77	=77	=77	=77	=77	=77
2B-\	.	Se-	2B-\	Se-	.	(4B-\	Se-	.	2f,<\]	.	2dd\	Se-
.	.	.	.	.	.	4A\)	.	.	.	.	.	.
2c\	.	.	2c\	.	.	1G	.	.	(2f\	Se-	1cc	.
*	*	*	*custos:f	*	*	*	*	*	*	*	*	*
2C/	.	.	2C/	.	.	.	.	.	2e\)	.	.	.
!	!	!	!LO:LB:g=original	!	!	!	!	!	!	!	!	!
=78	=78	=78	=78	=78	=78	=78	=78	=78	=78	=78	=78	=78
2F,<\	.	-xu:	2F,<\	-xu:	.	2A,<\	-xu	.	2f,<\	-xus:	2cc,<\	-xu.
4F\	.	Sen-	4F\	Sen-	.	4A\	sen-	.	4f\	sen-	4cc\	sen-
4F\	.	-ti-	4F\	-ti-	.	4A\	-ti-	.	4f\	-ti-	4cc\	-ti-
2B-\	.	-ant	2B-\	-ant	.	2B-\	-ant	.	2f\	-ant	2dd\	-ant
=79	=79	=79	=79	=79	=79	=79	=79	=79	=79	=79	=79	=79
1G	6 5	o(m)-	1G	o(m)-	.	1d	om-	.	1g	om-	1ee-X	om-
2A-X\	.	-nes	2A-X\	-nes	.	2c\	-nes	.	2e-X\	-nes	2ee-\	-nes
!	!	!	!	!	!	!	!	!	!LO:LB:g=original	!	!	!
=80	=80	=80	=80	=80	=80	=80	=80	=80	=80	=80	=80	=80
2F\	6 5	Tu-	2F\	Tu-	.	2c\	Tu-	.	2f\	Tu-	2dd\	Tu-
2F\	.	-um	2F,<\	-um	.	2c\	-um	.	2f,<\	-um	2dd,<\	-um
2G\	.	Ju-	2G\	Ju-	.	2B-\	Ju-	.	2d\	Ju-	2dd\	Ju-
=81	=81	=81	=81	=81	=81	=81	=81	=81	=81	=81	=81	=81
2E-X\	.	-va-	(2E-X\	-va-	.	1B-	-va-	.	2g\	-va-	1.cc	-va-
2F\	.	.	2F\)	.	.	.	.	.	1f	.	.	.
*	*	*	*	*	*	*custos:b	*	*	*	*	*	*
2FF/	.	.	2FF/	.	.	2A/	.	.	.	.	.	.
!	!	!	!	!	!	!LO:LB:g=original	!	!	!	!	!	!
=82	=82	=82	=82	=82	=82	=82	=82	=82	=82	=82	=82	=82
2BB-,</	.	-men	2BB-,</	-men	.	2B-,<\	-men	.	2f,<\	-men	2dd,<\	-men
2E-X\	.	qui	2E-X\	qui	.	2G/	qui	.	2e-X\	qui	2b-\	qui
4E-\	.	cum-	4E-\	cum-	.	4G/	cum-	.	4e-\	cum-	4b-\	cum-
4E-\	.	-que	4E-\	-que	.	4G/	-q(ue)	.	4e-\	-q(ue)	4b-\	-q(ue)
=83	=83	=83	=83	=83	=83	=83	=83	=83	=83	=83	=83	=83
2.E-X\	.	ce-	2.E-X\	ce-	.	2.An\	ce-	.	2.f\	ce-	2.cc\	ce-
4E-\	.	-le-	4E-\	-le-	.	4A\	-le-	.	4f\	-le-	4cc\	-le-
2D\	.	-brant	2D/	-brant	.	2B-\	-brant	.	2f\	-brant	2dd\	-brant
!LO:LB:g=original	!	!	!	!	!	!	!	!	!	!	!LO:LB:g=original	!
=84	=84	=84	=84	=84	=84	=84	=84	=84	=84	=84	=84	=84
1C	.	Tu-	1C	Tu-	.	1B-	Tu-	.	1g	Tu-	1ee-X	Tu-
2F\	.	-a(m)	2F\	-a(m)	.	2An/	-am	.	2f\	-am	2ee-\	-am
=85	=85	=85	=85	=85	=85	=85	=85	=85	=85	=85	=85	=85
2BB-/	.	S(an)-	2BB-/	S(an)-	.	2A/	San-	.	2f\	Sanc-	2dd\	Sanc-
2BB-,</	.	-cta(m)	2BB-,</	-ctam	.	2A,</	-cta	.	2f,<\	-tam	2dd,<\	-tam
2B-\	.	Com-	2B-\	Com-	.	2F/	Com-	.	2f\	Com-	2dd\	Com-
!	!	!	!LO:LB:g=original	!	!	!	!	!	!	!	!	!
=86	=86	=86	=86	=86	=86	=86	=86	=86	=86	=86	=86	=86
2.G\	6	-(m)e-	2.G\	-me-	.	2.G/	-(m)e-	.	2.e-X\	-(m)e-	2.b-\	-me-
4G\	.	-mo-	4G\	-mo-	.	4G/	-mo-	.	4e-\	-mo-	4b-\	-mor-
2A-X\	.	-ra-	2A-X\	-ra-	.	2c\	-ra-	.	2e-\	-ra-	2cc\	-a-
=87	=87	=87	=87	=87	=87	=87	=87	=87	=87	=87	=87	=87
2F\	.	-ti-	2F\	-ti-	.	2A-X/	-ti-	.	2d\	-ti-	2cc\	-ti-
2G\	.	-o-	2G\	-o-	.	1G	-o-	.	1dT	-o-	(2cc\	-o-
*	*	*	*	*	*	*	*	*	*custos:e-	*	*	*
2GG/	.	.	2GG/	.	.	.	.	.	.	.	2bn\)	.
!	!	!	!	!	!	!	!	!	!LO:PB:g=original	!	!	!
=88	=88	=88	=88	=88	=88	=88	=88	=88	=88-	=88	=88	=88
*M2/2	*	*	*M2/2	*	*	*M2/2	*	*	*M2/2	*	*M2/2	*
*met(c|)	*	*	*met(c|)	*	*	*met(c|)	*	*	*met(c|)	*	*met(c|)	*
2C,</	.	nem.	2C,</	nem.	.	2G,</	-nem	.	2e-X,<\	-nem.	1cc	-nem.
!	!	!	!	!	!	!LO:TX:b:t=Vertat	!	!	!	!	!	!
2r	.	.	2r	.	.	2r	.	.	1g\	Qui-	.	.
!	!	!	!	!	!	!LO:PB:g=original	!	!	!	!	!	!
=89	=89	=89	=89	=89	=89	=89	=89	=89	=89-	=89	=89	=89
!	!	!	!	!	!	!	!	!LO:DY:t=For.	!	!	!	!
00r	.	.	00r	.	.	2r	.	f	.	.	0r	.
.	.	.	.	.	.	1c\	Qui-	.	2e-X\	-a	.	.
=90	=90	=90	=90	=90	=90	=90-	=90	=90	=90	=90	=90	=90
.	.	.	.	.	.	.	.	.	2f\	ex	.	.
!	!	!	!	!	!	!	!	!	!	!	!LO:TX:b:t=Vertat	!
.	.	.	.	.	.	2Bn\	-a	.	2g\	Te	.	.
!	!	!	!	!	!	!	!	!	!	!	!LO:PB:g=original	!
=91	=91	=91	=91	=91	=91	=91	=91	=91	=91	=91	=91	=91
.	.	.	.	.	.	1c	ex	.	4c/	or-	2r	.
.	.	.	.	.	.	.	.	.	(4d/	.	.	.
.	.	.	.	.	.	.	.	.	4e-X/)	.	1cc\	Qui-
.	.	.	.	.	.	.	.	.	4f/	.	.	.
=92	=92	=92	=92	=92	=92	=92-	=92	=92	=92	=92	=92-	=92
.	.	.	.	.	.	1G,<	Te	.	2.g\	.	.	.
.	.	.	.	.	.	.	.	.	.	.	2bn\	-a
.	.	.	.	.	.	.	.	.	4f\	.	.	.
=93	=93	=93	=93	=93	=93	=93	=93	=93	=93-	=93	=93	=93
00r	.	.	00r	.	.	4C/	or-	.	2.e-X\	.	1cc	ex
.	.	.	.	.	.	4D/	.	.	.	.	.	.
.	.	.	.	.	.	4E-X/	.	.	.	.	.	.
.	.	.	.	.	.	4F/	.	.	4e-,<\	-tus	.	.
=94	=94	=94	=94	=94	=94	=94	=94	=94	=94	=94	=94-	=94
.	.	.	.	.	.	4G/	.	.	4d/	or-	2g,</	Te
.	.	.	.	.	.	4A/	.	.	4c/	.	.	.
.	.	.	.	.	.	4B-/	.	.	4d/	.	[2g/	or-
.	.	.	.	.	.	4G/	.	.	4B-/	.	.	.
=95	=95	=95	=95	=95	=95	=95-	=95	=95	=95	=95	=95	=95
!	!	!	!	!	!	!	!	!	!	!	!LO:N:xstem:cue	!
.	.	.	.	.	.	2.c\	.	.	4e-X\	.	4g/]	.
.	.	.	.	.	.	.	.	.	4f\	.	4f/	.
.	.	.	.	.	.	.	.	.	1g\	.	4e-X/	.
.	.	.	.	.	.	4B-\	.	.	.	.	4c/	.
=96	=96	=96	=96	=96	=96	=96	=96	=96	=96-	=96	=96	=96
.	.	.	.	.	.	2.A-X/	.	.	.	.	2.cc\	.
.	.	.	.	.	.	.	.	.	2f\	-tus	.	.
.	.	.	.	.	.	4A-/	-tus	.	.	.	4cc\	-tus
=97	=97	=97	=97	=97	=97	=97-	=97	=97	=97	=97	=97-	=97
2r	.	.	2r	.	.	2G,</	est	.	2g,<\	est	2bn,<\	est
1E-X\	.	Sol	[<2E-X\	Sol	.	2G/	Sol	.	2B-/	Sol	1g\	Sol
=98-	=98	=98	=98	=98	=98	=98	=98	=98	=98-	=98	=98-	=98
.	.	.	2E-\]	.	.	4c\	.	.	1c	.	.	.
.	.	.	.	.	.	4B-\	.	.	.	.	.	.
1F\	.	Jus-	1F\	Jus-	.	4A-X/	.	.	.	.	1a-X\	.
.	.	.	.	.	.	4G/	.	.	.	.	.	.
=99-	=99	=99	=99-	=99	=99	=99	=99	=99	=99-	=99	=99-	=99
.	.	.	.	.	.	2F/	Ju-	.	1d	Jus-	.	.
1G\	.	.	1G\	-ti-	.	2B-\	.	.	.	.	[<2b-X\	Ju-
=100-	=100	=100	=100-	=100	=100	=100-	=100	=100	=100-	=100	=100	=100
.	.	.	.	.	.	2G/	-sti-	.	1e-X	-ti-	2b-\]	.
1A-X\	.	-ti-	[<2A-X\	-ti-	.	2.c\	.	.	.	.	1cc\	-sti-
!	!	!	!	!	!	!	!	!	!LO:LB:g=original	!	!	!
=101-	=101	=101	=101	=101	=101	=101-	=101	=101	=101	=101	=101-	=101
.	.	.	2A-\]	.	.	.	.	.	1.f	.	.	.
.	.	.	.	.	.	4d\	.	.	.	.	.	.
1B-\	.	.	1B-\	-ti-	.	1e-X\	.	.	.	.	1b-\	.
=102-	=102	=102	=102-	=102	=102	=102-	=102	=102	=102-	=102	=102-	=102
.	.	.	.	.	.	.	.	.	.	.	.	.
*	*	*	*	*	*	*custos:e-	*	*	*	*	*	*
2BB-/	.	-ti-	2BB-/	.	.	2d\	-ti-	.	2f\	-ti-	2b-\	-ti-
!	!	!	!	!	!	!LO:LB:g=original	!	!	!	!	!	!
=103	=103	=103	=103	=103	=103	=103	=103	=103	=103	=103	=103-	=103
1E-X	.	-ae.	1E-X	-ae.	.	2e-X,<\	-ae.	.	2g,<\	-ae	1b-,<	-ae.
.	.	.	.	.	.	1e-\	X-	.	2g\	X-	.	.
=104	=104	=104	=104	=104	=104	=104-	=104	=104	=104	=104	=104	=104
00r	.	.	00r	.	.	.	.	.	1f	-tus	1r	.
.	.	.	.	.	.	2d\	-tus	.	.	.	.	.
=105	=105	=105	=105	=105	=105	=105	=105	=105	=105	=105	=105	=105
.	.	.	.	.	.	1c	De-	.	2.e-X\	De-	2.ee-X\	Chris-
*	*	*	*	*	*	*	*	*	*	*	*custos:c	*
.	.	.	.	.	.	.	.	.	4d\	.	4dd\	-tus
!	!	!	!	!	!	!	!	!	!	!	!LO:LB:g=original	!
=106	=106	=106	=106	=106	=106	=106-	=106	=106	=106	=106	=106	=106
.	.	.	.	.	.	1F	-us	.	2c,</	-us	4cc\	De-
.	.	.	.	.	.	.	.	.	.	.	4b-\	.
.	.	.	.	.	.	.	.	.	2.f\	no-	1cc\	.
=107	=107	=107	=107	=107	=107	=107	=107	=107	=107-	=107	=107-	=107
.	.	.	.	.	.	1G	noſ-	.	.	.	.	.
.	.	.	.	.	.	.	.	.	4e-X\	.	.	.
.	.	.	.	.	.	.	.	.	2d\	.	2bn,<\	-us
=108-	=108	=108	=108	=108	=108	=108-	=108	=108	=108	=108	=108	=108
2r	.	.	2r	.	.	1C,<	-ter	.	1e-X,<	-ster.	(2cc\	no-
1C/	.	Qui-	1C/	Qui-	.	.	.	.	.	.	2ee-X\)	.
=109-	=109	=109	=109-	=109	=109	=109	=109	=109	=109	=109	=109-	=109
.	.	.	.	.	.	0r	.	.	2r	.	1dd	.
*	*	*	*custos:C	*	*	*	*	*	*	*	*	*
2BBn/	.	-a	2BBn/	-a	.	.	.	.	1g\	Qui-	.	.
!	!	!	!LO:LB:g=original	!	!	!	!	!	!	!	!	!
=110	=110	=110	=110	=110	=110	=110	=110	=110	=110-	=110	=110-	=110
1C	.	ex	1C	ex	.	.	.	.	.	.	2cc,<\	-ster
.	.	.	.	.	.	.	.	.	2e-X\	-a	[<2g\	Or-
=111-	=111	=111	=111-	=111	=111	=111	=111	=111	=111	=111	=111	=111
!	!	!	!	!	!	!	!	!	!	!	!LO:N:xstem:cue	!
2GG,</	.	Te	2GG,</	Te	.	1r	.	.	1d	ex	4g\]	.
.	.	.	.	.	.	.	.	.	.	.	4an\	.
1G\	.	qui-	1G\	qui-	.	.	.	.	.	.	4b-X\	.
.	.	.	.	.	.	.	.	.	.	.	4g\	.
=112-	=112	=112	=112-	=112	=112	=112	=112	=112	=112-	=112	=112	=112
.	.	.	.	.	.	2r	.	.	1c	Te	2.an\	.
2F#X\	.	-a	2F#X\	-a	.	1d\	Qui-	.	.	.	.	.
.	.	.	.	.	.	.	.	.	.	.	4a\	-tus
!LO:LB:g=original	!	!	!	!	!	!	!	!	!	!	!	!
=113	=113	=113	=113	=113	=113	=113-	=113	=113	=113	=113	=113	=113
1G	.	ex	1G	ex	.	.	.	.	4G/	or-	2g,</	est.
.	.	.	.	.	.	.	.	.	4A/	.	.	.
.	.	.	.	.	.	2B-\	-a	.	4B-/	.	1g/	qui-
.	.	.	.	.	.	.	.	.	4c/	.	.	.
=114-	=114	=114	=114-	=114	=114	=114	=114	=114	=114	=114	=114-	=114
1D	.	Te	1D,<	Te	.	1A	ex	.	4d\	.	.	.
.	.	.	.	.	.	.	.	.	4en\	.	.	.
.	.	.	.	.	.	.	.	.	4f#X\	.	2f#X/	-a
.	.	.	.	.	.	.	.	.	4d\	.	.	.
=115	=115	=115	=115	=115	=115	=115-	=115	=115	=115	=115	=115	=115
4GG/	.	or-	4GG/	or-	.	1B-,<	Te	.	4B-/	.	1g	ex
4AA/	.	.	(4AA/	.	.	.	.	.	4A/	.	.	.
4BB-/	.	.	4BB-/	.	.	.	.	.	2G,</	-tus	.	.
4C/	.	.	4C/)	.	.	.	.	.	.	.	.	.
!	!	!	!	!	!	!	!	!	!LO:LB:g=original	!	!	!
=116	=116	=116	=116-	=116	=116	=116	=116	=116	=116	=116	=116-	=116
4D\	.	.	4D\	.	.	2.A\	or-	.	2r	.	1f#X,<	Te
4E\	.	.	4E\	.	.	.	.	.	.	.	.	.
4F#X\	.	.	4F#X\	.	.	.	.	.	2.d/	or-	.	.
4D\	.	.	4D\	.	.	4A\	-tus	.	.	.	.	.
=117	=117	=117	=117	=117	=117	=117	=117	=117	=117-	=117	=117	=117
2.G\	.	.	2.G\	.	.	2B-,<\	est	.	.	.	4g\	or-
.	.	.	.	.	.	.	.	.	4c/	.	4a\	.
.	.	.	.	.	.	1B-\	or-	.	4B-/	.	4b-\	.
4F\	.	.	4F\	.	.	.	.	.	4G/	.	4cc\	.
=118-	=118	=118	=118-	=118	=118	=118-	=118	=118	=118	=118	=118	=118
2.E-X\	.	.	2.E-X\	.	.	.	.	.	2.g\	.	2dd\	.
.	.	.	.	.	.	2c\	-tus	.	.	.	2cc\	-tus
4E-\	.	-tus	4E-\	-tus	.	.	.	.	4g\	-tus	.	.
!	!	!	!	!	!	!	!	!	!	!	!LO:LB:g=original	!
=119	=119	=119	=119	=119	=119	=119	=119	=119	=119-	=119	=119	=119
2D,</	.	eſt	2D,</	eſt	.	2A,<\	est	.	2f#X,<\	est	2dd,<\	est
1BB-/	.	Sol	1BB-/	Sol	.	2B-\	Sol	.	1d\	Sol	2fn/	Sol
=120-	=120	=120	=120-	=120	=120	=120-	=120	=120	=120-	=120	=120	=120
.	.	.	.	.	.	2G/	.	.	.	.	1g	Jus-
1C/	.	.	1C/	.	.	2c\	Ju-	.	1e-X\	.	.	.
=121-	=121	=121	=121-	=121	=121	=121	=121	=121	=121-	=121	=121-	=121
*	*	*	*	*	*	*	*	*	*	*	*lig	*
!	!	!	!	!	!	!	!	!	!	!	!LO:N:vis=0	!
.	.	.	.	.	.	2A\	-sti-	.	.	.	1a	-ti
1D\	.	.	[<2D\	Ju-	.	2d\	.	.	[<2f\	Ju-	.	.
!	!	!	!	!	!	!LO:LB:g=original	!	!	!	!	!	!
=122-	=122	=122	=122	=122	=122	=122	=122	=122	=122	=122	=122-	=122
!	!	!	!	!	!	!	!	!	!	!	!LO:N:vis=0	!
.	.	.	2D\]	.	.	2B-\	.	.	2f\]	.	1b-	.
1E-X\	.	Ju-	1E-X\	-sti-	.	2e-X\	.	.	1g\	-sti-	.	.
*	*	*	*	*	*	*	*	*	*	*	*Xlig	*
=123-	=123	=123	=123-	=123	=123	=123	=123	=123	=123-	=123	=123	=123
.	.	.	.	.	.	1.c	.	.	.	.	1.cc	.
1F\	.	-sti-	1F\	.	.	.	.	.	1f\	.	.	.
=124-	=124	=124	=124-	=124	=124	=124-	=124	=124	=124-	=124	=124-	=124
.	.	.	.	.	.	.	.	.	.	.	.	.
2F\	.	-ti-	2F\	-ti-	.	2c\	-ti-	.	2f\	-ti-	2a\	-ti-
=125	=125	=125	=125	=125	=125	=125	=125	=125	=125	=125	=125	=125
2BB-,</	.	-ae	2BB-,</	-ae	.	2d,<\	-ae	.	2f,<\	-ae	2b-,<\	-ae
1B-\	.	X-	1B-\	X-	.	2d\	X-	.	4d\	X-	2f/	X-
.	.	.	.	.	.	.	.	.	4d\	-tus	.	.
=126-	=126	=126	=126-	=126	=126	=126-	=126	=126	=126-	=126	=126-	=126
.	.	.	.	.	.	1c,<	-tus	.	2en\	De-	(2g\	-tus
2A\	.	-t(us)	2A\	-t(us)	.	.	.	.	2f#X\	-us	2a\)	.
=127	=127	=127	=127	=127	=127	=127	=127	=127	=127	=127	=127	=127
1G	.	De-	1G	De-	.	1B-	De-	.	2.g\	no-	2.b-\	De-
.	.	.	.	.	.	.	.	.	4f\	.	4a\	.
=128-	=128	=128	=128-	=128	=128	=128-	=128	=128	=128-	=128	=128	=128
1C	.	-us	1C,<	-us	.	1c,<	-us	.	4e-X\	.	2g,<\	-us
.	.	.	.	.	.	.	.	.	4f\	.	.	.
.	.	.	.	.	.	.	.	.	1g\	.	2.cc\	no-
=129	=129	=129	=129	=129	=129	=129	=129	=129	=129-	=129	=129-	=129
1D	.	noſ-	1D	noſ-	.	1A	noſ-	.	.	.	.	.
.	.	.	.	.	.	.	.	.	.	.	4b-\	.
*	*	*	*	*	*	*	*	*	*custos:g	*	*	*
.	.	.	.	.	.	.	.	.	2f#X\	.	2a\	.
!	!	!	!	!	!	!	!	!	!LO:LB:g=original	!	!	!
=130	=130	=130	=130-	=130	=130	=130-	=130	=130	=130	=130	=130	=130
2GG,</	.	-ter	2GG/	-ter	.	2Bn,<\	-ter	.	2g\	-ster	2g,<\	-ster
1C/	.	D(e)-	1C/	D(e)-	.	1c\	De-	.	1e-X\	De-	1g	De-
=131-	=131	=131	=131-	=131	=131	=131-	=131	=131	=131-	=131	=131-	=131
.	.	.	.	.	.	.	.	.	.	.	.	.
2BBn/	.	-us	2BBn/	-us	.	2G/	-us	.	2d\	-us	2g\	-us
=132-	=132	=132	=132	=132	=132	=132-	=132	=132	=132	=132	=132	=132
0C	.	noſ-	0C	nos-	.	0c	noſ-	.	0e-X	noſ-	0g	noſ-
=133-	=133	=133	=133	=133	=133	=133	=133	=133	=133	=133	=133-	=133
.	.	.	.	.	.	.	.	.	.	.	.	.
=134-	=134	=134	=134	=134	=134	=134	=134	=134	=134	=134	=134-	=134
0GG;	.	-ter.	0GG;	-ter.	.	0Bn;	-ter.	.	0d;	-ter	0g;	-ter.
=135-	=135	=135	=135	=135	=135	=135	=135	=135	=135	=135	=135-	=135
.	.	.	.	.	.	.	.	.	.	.	.	.
==	==	==	==	==	==	==	==	==	==	==	==	==
*-	*-	*-	*-	*-	*-	*-	*-	*-	*-	*-	*-	*-
!!!system-decoration: [(s1,s2,s3,s4,s5)]
!!!RDF**kern: < = below
!!!ENC: Marta Lawrence
!!!END: 2021-02-17
!!!ENC: Berenika Jozajtis
!!!END: 2021-02-14
